symbols/web/garage/materialsymbolsoutlined/garage_grad200fill1_40px.svg

<svg xmlns="http://www.w3.org/2000/svg" height="40" width="40"><path d="M6 37.542q-1.542 0-2.521-.98-.979-.979-.979-2.52V5.958q0-1.416.979-2.458Q4.458 2.458 6 2.458h28.125q1.375 0 2.437 1.042 1.063 1.042 1.063 2.458v28.084q0 1.541-1.063 2.52-1.062.98-2.437.98Zm8.083-13.917q-.625 0-1.062-.437-.438-.438-.438-1.063t.438-1.063q.437-.437 1.062-.437t1.063.437q.437.438.437 1.063 0 .667-.437 1.083-.438.417-1.063.417Zm11.959 0q-.625 0-1.063-.437-.437-.438-.437-1.063t.437-1.063q.438-.437 1.063-.437t1.062.437q.438.438.438 1.063 0 .667-.459 1.083-.458.417-1.041.417ZM8 18.708v11.584q0 .5.354.854t.896.354h.583q.5 0 .875-.354t.375-.854v-2.417h18v2.417q0 .5.334.854.333.354.875.354h.625q.5 0 .854-.354t.354-.854V18.708l-2.708-7.875q-.292-.791-.959-1.291-.666-.5-1.5-.5H13.25q-.875 0-1.583.479-.709.479-.959 1.312Zm4-2.25 1.458-4.333h13.209l1.5 4.333Z"/></svg>

<svg xmlns="http://www.w3.org/2000/svg" height="40" width="40"><path d="M6 37.542Q4.458 37.542 3.479 36.562Q2.5 35.583 2.5 34.042V5.958Q2.5 4.542 3.479 3.5Q4.458 2.458 6 2.458H34.125Q35.5 2.458 36.562 3.5Q37.625 4.542 37.625 5.958V34.042Q37.625 35.583 36.562 36.562Q35.5 37.542 34.125 37.542ZM14.083 23.625Q13.458 23.625 13.021 23.188Q12.583 22.75 12.583 22.125Q12.583 21.5 13.021 21.062Q13.458 20.625 14.083 20.625Q14.708 20.625 15.146 21.062Q15.583 21.5 15.583 22.125Q15.583 22.792 15.146 23.208Q14.708 23.625 14.083 23.625ZM26.042 23.625Q25.417 23.625 24.979 23.188Q24.542 22.75 24.542 22.125Q24.542 21.5 24.979 21.062Q25.417 20.625 26.042 20.625Q26.667 20.625 27.104 21.062Q27.542 21.5 27.542 22.125Q27.542 22.792 27.083 23.208Q26.625 23.625 26.042 23.625ZM8 18.708V30.292Q8 30.792 8.354 31.146Q8.708 31.5 9.25 31.5H9.833Q10.333 31.5 10.708 31.146Q11.083 30.792 11.083 30.292V27.875H29.083V30.292Q29.083 30.792 29.417 31.146Q29.75 31.5 30.292 31.5H30.917Q31.417 31.5 31.771 31.146Q32.125 30.792 32.125 30.292V18.708L29.417 10.833Q29.125 10.042 28.458 9.542Q27.792 9.042 26.958 9.042H13.25Q12.375 9.042 11.667 9.521Q10.958 10 10.708 10.833ZM12 16.458 13.458 12.125H26.667L28.167 16.458Z"/></svg>
